lib/svgs/quote.svg

<svg xmlns="http://www.w3.org/2000/svg" viewBox="0 0 20 20">
    <path fill="#000" fill-rule="evenodd" d="M8.791,15.1522654 L4.6,15.1522654 C4.269,15.1522654 4,14.8832654 4,14.5522654 L4,9.31526542 C4,6.63926542 5.006,4.86626542 6.99,4.04626542 C7.296,3.91926542 7.647,4.06526542 7.773,4.37126542 C7.9,4.67726542 7.755,5.02826542 7.449,5.15426542 C6.08,5.72126542 5.348,6.88826542 5.22,8.71526542 L8.791,8.71526542 C9.122,8.71526542 9.391,8.98326542 9.391,9.31526542 L9.391,14.5522654 C9.391,14.8832654 9.122,15.1522654 8.791,15.1522654 L8.791,15.1522654 Z M5.2,13.9532654 L8.19,13.9532654 L8.19,9.91526542 L5.2,9.91526542 L5.2,13.9532654 L5.2,13.9532654 Z M15.6,15.1522654 L11.41,15.1522654 C11.078,15.1522654 10.81,14.8832654 10.81,14.5522654 L10.81,9.31526542 C10.81,6.63926542 11.816,4.86626542 13.799,4.04626542 C14.107,3.91826542 14.458,4.06526542 14.583,4.37126542 C14.709,4.67726542 14.564,5.02826542 14.258,5.15426542 C12.889,5.72126542 12.157,6.88826542 12.03,8.71526542 L15.6,8.71526542 C15.931,8.71526542 16.2,8.98326542 16.2,9.31526542 L16.2,14.5522654 C16.2,14.8832654 15.931,15.1522654 15.6,15.1522654 L15.6,15.1522654 Z M12.009,13.9532654 L15,13.9532654 L15,9.91526542 L12.009,9.91526542 L12.009,13.9532654 L12.009,13.9532654 Z"/>
</svg>

<svg xmlns="http://www.w3.org/2000/svg" viewBox="0 0 20 20">
    <path fill="#000" fill-rule="evenodd" d="M8.791 15.152H4.6a.6.6 0 0 1-.6-.6V9.315C4 6.64 5.006 4.866 6.99 4.046a.599.599 0 1 1 .459 1.108C6.08 5.721 5.348 6.888 5.22 8.715h3.571a.6.6 0 0 1 .6.6v5.237a.6.6 0 0 1-.6.6M5.2 13.953h2.99V9.915H5.2v4.038m10.4 1.2h-4.19a.6.6 0 0 1-.6-.6V9.314c0-2.676 1.006-4.449 2.989-5.269a.6.6 0 1 1 .459 1.108c-1.369.567-2.101 1.734-2.228 3.561h3.57a.6.6 0 0 1 .6.6v5.237a.6.6 0 0 1-.6.6m-3.591-1.199H15V9.915h-2.991v4.038"/>
</svg>
